X: 1
T:Jeannie Carruthers  "CYMRU"
M:C|
L:1/8
Q:80
C:
S:March
K:HP
|: a3/4f/4|
{gef}e3/2c/2{g}A{a}g3/4e/4|
{Gdc}d3/2B/2{g}Ga3/4f/4|  !
{g}e3/4d/4{gcd}c3/4B/4{g}A3/4B/4{GdG}c3/4d/4|
{gef}ea{g}a3/4g/4{a}f/4a3/4| |
{gef}e3/2c/2{g}A{a}g3/4e/4|  !
{Gdc}d3/2B/2{g}G{g}B/4d3/4|
{gef}ea{f}g3/4e/4{Gdc}d3/4e/4|
{g}A2{GAG}A:| |:  !
a3/4f/4|
{g}e3/4d/4{g}c/4e3/4{AGAG}A{a}g3/4e/4|
{Gdc}d3/4c/4{g}B/4d3/4{g}Ga3/4f/4|  !
{g}e3/4d/4{gcd}c3/4B/4{g}A3/4B/4{GdG}c3/4d/4|
{gef}ea{g}a3/4g/4{a}f/4a3/4|1 |
{g}e3/4d/4{g}c/4e3/4{AGAG}A{a}g3/4e/4|  !
{Gdc}d3/4c/4{g}B/4d3/4{g}G{g}B/4d3/4|
{gef}ea{f}g3/4e/4{Gdc}d3/4e/4|
{g}A2{GAG}A:|2 |  !
e3/4d/4{g}c/4e3/4{AGAG}A{g}c/4e3/4|
{g}B/4d3/4{g}c/4e3/4{g}G{g}B/4d3/4|
{gef}ea{f}g3/4e/4{Gdc}d3/4e/4|  !
{g}A2{GAG}A|] |:
e|
{g}A{GdGe}A3/4B/4{GdG}c{Gdc}d|
{gef}e3/4c/4{g}d3/4B/4{g}G{gef}e|  !
{g}A{GdGe}A3/4B/4{GdG}c{Gdc}d|
{gef}ea{g}a|1 e3/4c/4|1 |
{g}A{GdGe}A3/4B/4{GdG}c{Gdc}d|  !
{gef}e3/4c/4{g}d3/4B/4{g}G{g}B/4d3/4|
{gef}ea{f}g3/4e/4{Gdc}d3/4e/4|
{g}A2{GAG}A:|2  !
g|
{a}f3/4e/4{Gdc}d3/4f/4{gef}e3/4c/4{g}A3/4{d}B/4|
{a}g3/4e/4{g}d3/4B/4{g}GB/4{g}d3/4|
{gef}ea{f}g3/4e/4{Gdc}d3/4e/4|  !
{g}A2{GAG}A|] |:
a|
A3/4{d}c/4{gef}e3/4d/4{g}c3/4d/4{gef}e3/4c/4|
{g}B/4{d}G3/4{g}B/4d3/4{a}g3/4G/4{Gdc}d3/4B/4|  !
{g}A3/4{d}c/4{gef}e3/4c/4{g}c3/4d/4{gef}e3/4c/4|
{gAGAG}Aa{g}a|1 e3/4c/4|1 |
A3/4{d}c/4{gef}e3/4d/4{g}c3/4d/4{gef}e3/4c/4|  !
{g}B/4{d}G3/4{g}B/4d3/4{a}g3/4G/4{Gdc}d3/4B/4|
{gef}ea{f}g3/4e/4{Gdc}d3/4e/4|
{g}A2{GAG}A:|2  !
g|
{a}f/4a3/4f3/4d/4{g}c/4e3/4{g}A3/4c/4|
{g}B/4d3/4{g}c/4e3/4{g}B/4d3/4G3/4B/4|
{gef}ea{f}g3/4e/4{Gdc}d3/4e/4|  !
{g}A2{GAG}A|]
